X:1
T:7 Mélodies, Op.2
T:Hebe
T:7 Mélodies, Op.2
T:Ernest Chausson
T: Louise-Victorine Ackermann, née Choquet
T:6. Hébé Chanson grecque dans le mode phrygien 
T:OpenScore (CC0)
T:OpenScore (CC0)
T:OpenScore (CC0)
T:OpenScore (CC0)
C:Ernest Chausson
Z:Louise-Victorine Ackermann
Z:OpenScore (CC0)
%%score 1 { ( 2 4 ) | ( 3 5 ) }
L:1/8
Q:1/4=110
M:6/4
K:C
V:1 treble nm="Voice"
V:2 treble nm="Piano"
V:4 treble 
V:3 bass 
V:5 bass 
V:1
"^Pas vite" z6 !fermata!z6 |!p! A2 G2 A2 (c2 B2) A A | G2 A2 c2 B4 A2 | z2 B2 c c d2 c2 B2 | %4
w: |Les yeux bais- sés, _ rou- gis-|sante et can- di- de|Vers leurs ban- quet quand Hé-|
 A2[Q:1/4=104]"^poco rit." B2 G2 E4 z2 |[Q:1/4=110]"^a tempo" z G A2- A A G2 z2 G2 | %6
w: bé s'a- van- çait,|Les Dieux _ char- més ten-|
 A3 A A A G2 G2 z2 | A2 G2 A2 (c2 B2) A2 |[Q:1/4=104]"^poco rit." G2 A2 c c B4 z2 | %9
w: daient leur cou- pe vi- de,|Et de nec- tar _ l'en-|fant la rem- plis- sait.|
[Q:1/4=110]"^a tempo" z6 z4!mf![Q:1/4=120]"^T" c2 |[Q:1/4=134]"^un peu plus vite" c4 E2 E2 z2 E2 | %11
w: Nous|tous aus- si, quand|
 E4 E2 (E2 F2) G2 | A6 A2 z2 z2 | G2 G2 G2 c4 c c | B2 B2 B2 A4- A z | z12 | z12 | %17
w: pas- se la _ jeu-|nes- se,|Nous lui ten- dons no- tre|cou- peà l'en- vi. _|||
!p! G2 A2 B2 (c2 A2) G2 |[Q:1/4=130]"^poco rit." F3 F G A B4 B2 |[Q:1/4=134]"^a tempo" z12 | %20
w: Quel est le vin _ qu'y|ver- se la Dé- es- se?||
 A2 B2 c2 d6 | z2 A2 B2 c6- | c2 B2 A2 B6 | z12 |[Q:1/4=126]"^T" z12[Q:1/4=116]"^T" | %25
w: Nous l'ig- no- rons;|il en- ivre|_ et ra- vit.|||
[Q:1/4=110]"^Tempo Io"!p! A2 G2 A2 c2 B2 A2 | G2 A2 c2 B4 A z | %27
w: A- yant sou- ri dans sa|grâce im- mor- tel- le,|
 A2 B2 c2[Q:1/4=100]"^riten." (d2 c[Q:1/4=90]"^T"B) A2 | %28
w: Hé- bé s'é- loi- * * gne;|
[Q:1/4=110]"^a tempo" A2 B B G[Q:1/4=100]"^poco rit." G E4 z2 | %29
w: on la rap- pel- leen vain.|
[Q:1/4=110]"^a tempo"!p! G2 A3 A G2 z2 G G | A2 A2 A2 G4 G2 | z2 z2 d2 c4 B2 | A6- A2 z2 z2 | %33
w: Long- temps en- cor sur la|route é- ter- nel- le,|Notre œil en|pleurs _|
!p! G6 A4 A2 | G6- G4 G2 | d6- d2 z2 z2 | z12 | z12[Q:1/4=100]"^rit." | %38
w: suit l'é- chan-|son _ di-|vin. _|||
[Q:1/4=90]"^T" !fermata!z12[Q:1/4=76]"^T"[Q:1/4=60]"^T" |] %39
w: |
V:2
!p! ([FA]2 [EG]2 [GB]2 !fermata![FA]6) |!p! ([FA]2 [EG]2 [FA]2 [Ac]2 [GB]2 [FA]2 | %2
 [EG]2 [FA]2 [Ac]2 [GB]4 [FA-]2) | ([EA]2 [FB]2 [Gc]2 [Ad]2 [Gc]2 [FB]2 | %4
 [EA]2 [FB]2 [DG]2 [C-E]4 [CF]2) | G2 A2- A2 G6 | A6 G6 | ([FA]2 [EG]2 [FA]2 [Ac]2 [GB]2 [FA]2 | %8
 [EG]2 [FA]2 [Ac]2 [GB]4 F2-) | (F3 E) x8 | x12 | %11
[I:staff +1] (G,,E,B,[I:staff -1]B,EB)[I:staff +1] (G,,E,B,[I:staff -1]B,EB) | %12
[I:staff +1] (G,,F,A,[I:staff -1]CFA)[I:staff +1] (G,,F,A,[I:staff -1]CFA) | %13
[I:staff +1] (G,,D,G,[I:staff -1]B,DG)[I:staff +1] (G,,E,G,[I:staff -1]CEc) | %14
[I:staff +1] (G,,D,G,[I:staff -1]B,DG)[I:staff +1] (G,,D,F,[I:staff -1]A,DA) |!mf! (d6 c4 B2 | %16
 A6- A6) | (G2 F2 G2 A2 F2 E2) | D3 DEF D6 | (B2 c2 d2 e2 c2 B2) | (A2 B2 c2 d2 B2 A2) | %21
 (G2 A2 B2 c2 A2 G2) | F2 G2 A2!p!!<(! B6!<)! |!f! (d6 c4 B2 | A6 G6) | (AdGdAd cdBdAd | %26
 GdAdcd [GB]d[GB]d[FA]d) |!p!!<(! (A2 B2 c2!<)!!>(! x4 [EA]2)!>)! | (A2 B2 G2 [C-E]4 [CF]2) | %29
 (G2 A2- A2 G6 | A6 G6) |!mf! (d6 c4 B2 | A6- A6) | [DG]6 [DA]6 | [EG]12 |!p! (d6 c4 B2 | A6 G6 | %37
 f6 e6 |!ped! d6- !fermata![DFAd]4)!ped-up! z2 |] %39
V:3
 z6 !fermata!z6 |[K:treble] D6- D6 | D6- D6 | (C2 D2 E2 F2 E2 D2 |[K:bass] C2 D2 B,2- B,2 A,4) | %5
 [G,B,]2 [F,A,]4 [E,B,]6 | [F,A,]6 [E,B,]6 | [D,D]6 [A,,A,]6 | %8
 ([C,C]2 [A,,A,]2 [F,,F,]2 [G,,G,]6) |(xG,C[I:staff -1]EGc)[I:staff +1](xG,C[I:staff -1]EGc) | %10
[I:staff +1](xE,C[I:staff -1]CEc)[I:staff +1] (A,,G,C[I:staff -1]CEc) |[I:staff +1] x12 | x12 | %13
 x12 | x12 | (F,,D,A,[I:staff -1]DFA)[I:staff +1] (F,,D,A,[I:staff -1]A,DF) | %16
[I:staff +1] (F,,D,A,[I:staff -1]A,DF)[I:staff +1] (F,,C,A,[I:staff -1]A,CF) | %17
!p![I:staff +1] C,6 A,,6 | D,6 [G,,D,]6 |!mf! G,6 E,6 |!p! F,6 B,,6 | E,6 C,6 | (D,6 [G,,D,]6) | %23
 (F,,D,A,!>(![I:staff -1]DFA)[I:staff +1] (F,,D,A,[I:staff -1]A,DF)!>)! | %24
!>(![I:staff +1] (F,,D,A,[I:staff -1]A,DF)[I:staff +1] (G,,D,G,[I:staff -1]G,B,D)!>)! | %25
!p![I:staff +1] D,,4[K:treble] D2- D4 D2- | D4 D2- D4 D2 | (C2 D2 E2 F2 ED C2) | %28
 (C2 D2 B,2- B,2 A,4) |[K:bass]!p! [G,B,]2 [F,A,]4 [E,B,]6 | [F,A,]6 [E,B,]6 | %31
!>(! (F,,D,A,[I:staff -1]DFA)[I:staff +1] (F,,D,A,[I:staff -1]A,DF) | %32
[I:staff +1] (F,,D,A,[I:staff -1]A,DF)[I:staff +1] (F,,D,A,[I:staff -1]A,CF)!>)! | %33
!p![I:staff +1] [G,B,]6 [F,A,]6 | [E,B,]12 | %35
 (F,,D,A,[I:staff -1]DFA)[I:staff +1] (F,,D,A,[I:staff -1]A,DF) | %36
[I:staff +1] (F,,D,A,[I:staff -1]A,DF)[I:staff +1] (F,,D,G,[I:staff -1]G,B,D) | %37
[I:staff +1] (D,A,D[I:staff -1]FAd)[I:staff +1] (A,,E,C[I:staff -1]EAc) | %38
[I:staff +1] x6 !fermata![A,,D,]4 z2 |] %39
V:4
 x12 | x12 | x12 | x12 | x12 | (D2 E2 D2 E2 F2 E2) | (D2 E2 D2 E2 F2 E2) | x12 | x12 | x12 | x12 | %11
 x12 | x12 | x12 | x12 | x12 | x12 | ECFCGC ACFCEC |(xA,DDEFxGDB,DG) | BGcGdG eGcGBG | %20
 AF- F2 cF dF- F2 AF | GE- E2 BE cE- E2 GE | (FD- D2 ADxGDB,DG) | x12 | x12 | F2 E2 F2 A2 G2 F2 | %26
 E2 F2 A2 x6 | AFBFcG [Ad]2 [Gc][FB] x2 | AEBFGD x6 | D2 E2 D2 E2 F2 E2 | D2 E2 D2 E2 F2 E2 | x12 | %32
 x12 | x12 | x12 | x12 | x12 | x12 |[I:staff +1] (D,,A,,-D,-[I:staff -1]D-F-A-) x6 |] %39
V:5
 x12 |[K:treble] x12 | x12 | x12 |[K:bass] x12 | x12 | x12 | x12 | x12 | C,6 B,,6 | A,,6 x6 | x12 | %12
 x12 | x12 | x12 | x12 | x12 | x12 | x12 | x12 | x12 | x12 | x12 | x12 | x12 | x4[K:treble] x8 | %26
 x12 | x12 | x12 |[K:bass] x12 | x12 | x12 | x12 | x12 | x12 | x12 | x12 | x12 | x3 x3 D,,4 x2 |] %39

